img/ingridients-icons/oat.svg

<svg width="17" height="24" viewBox="0 0 17 24" fill="none" xmlns="http://www.w3.org/2000/svg">
<path d="M11.4701 14.3212C11.9297 15.0528 12.6565 15.4513 13.4349 15.4513C13.796 15.4513 14.1665 15.3669 14.5276 15.1887L15.925 14.6964L14.9918 13.5428C14.6026 12.9238 14.0164 12.5533 13.3787 12.4502C13.8664 12.4174 14.3494 12.2345 14.7667 11.8828L16.0047 11.0715L14.823 10.1758C14.5557 9.91325 14.2509 9.73974 13.932 9.62251C14.1993 9.42087 14.4291 9.15358 14.6073 8.83001L15.4654 7.62016L14.0399 7.21688C13.4818 6.98241 12.9097 6.96366 12.4033 7.12778C12.7644 6.83705 13.0457 6.43376 13.1958 5.93669L13.7913 4.58148L12.3142 4.47362C11.0715 4.23447 9.96014 4.90035 9.59437 6.1102L9.11606 7.19343C8.82063 6.8558 8.50176 6.54162 8.15475 6.25557L9.29895 5.64596C10.4807 5.19109 11.0621 4.03283 10.7292 2.8136L10.5135 1.34584L9.20516 2.03986C8.02345 2.49472 7.44197 3.65299 7.77491 4.8769L7.95311 6.08675C7.5592 5.78195 7.13716 5.51934 6.68699 5.28957L7.24502 4.27198C7.98593 3.24502 7.84056 1.95545 6.88863 1.11606L5.90856 0L5.19578 1.29894C4.45487 2.32591 4.60023 3.61547 5.55217 4.45486L6.0211 4.98007C5.91794 4.93787 5.81946 4.89566 5.71161 4.85815C5.52872 4.79719 5.34115 4.86753 5.23329 5.01758L4.46424 4.13599C3.75147 3.09027 2.49472 2.78077 1.37866 3.38101L0 3.92497L0.970692 5.04103C1.43963 5.73036 2.14302 6.10082 2.89332 6.10082C3.01993 6.10082 3.14654 6.08675 3.26846 6.06331C2.67292 6.29308 2.18523 6.7714 1.92732 7.44666L1.24267 8.76436L2.71043 8.966C2.93083 9.02227 3.15123 9.05041 3.36694 9.05041C3.74678 9.05041 4.10785 8.95662 4.42673 8.78781C4.3095 9.13482 4.26729 9.51934 4.32356 9.92263L4.36108 11.4045L5.74443 10.8746C5.85698 10.8464 5.96483 10.8042 6.068 10.762C6.03517 10.8746 6.00235 10.9918 5.98359 11.1137L5.58499 12.5393L7.06213 12.4408C7.08089 12.4408 7.09965 12.4361 7.11841 12.4408C6.88394 12.6518 6.67761 12.9097 6.52755 13.2239L5.73036 14.4713L7.17468 14.8042C7.34349 14.8652 7.51231 14.9027 7.68113 14.9261C7.06213 14.9777 6.47597 15.2778 6.03986 15.8265L4.98476 16.8675L6.32122 17.51C6.73857 17.7773 7.18875 17.9086 7.62485 17.9086C8.3095 17.9086 8.97069 17.5944 9.45369 16.9894L9.50997 16.9332C8.19226 20.1172 5.35522 22.4525 1.61782 23.1653C1.38804 23.2075 1.23798 23.4326 1.28019 23.6577C1.3177 23.8593 1.4959 24 1.69285 24C1.72098 24 1.74443 23.9953 1.77257 23.9906C5.57562 23.2638 8.51114 20.9801 10.0258 17.8429L9.96952 19.0856C9.7585 20.3329 10.4572 21.4256 11.6811 21.7632L13.0551 22.3212L13.1254 20.8394C13.3365 19.592 12.6377 18.4994 11.4138 18.1618L10.1336 17.6366C10.3634 17.1301 10.551 16.6049 10.7104 16.061L10.8886 16.6893C11.0856 17.9367 12.0938 18.7573 13.3599 18.687L14.837 18.7855L14.4338 17.3599C14.2368 16.1079 13.2192 15.2919 11.9625 15.3623L10.9027 15.2919C11.0012 14.8277 11.0762 14.354 11.1184 13.871L11.4701 14.3212ZM9.52872 2.80891L9.85698 2.64009L9.90387 2.94959L9.91325 3.00117C10.143 3.81243 9.76788 4.55803 8.98007 4.85346L8.65182 5.02227L8.60492 4.71278L8.59555 4.6612C8.36108 3.84994 8.73623 3.10434 9.52872 2.80891ZM5.8898 1.77257L6.07269 1.449L6.28371 1.68347L6.32122 1.72098C6.95897 2.27433 7.05276 3.09965 6.551 3.7796L6.36811 4.10317L6.16178 3.8687L6.12427 3.83118C5.48652 3.28253 5.39273 2.45252 5.8898 1.77257ZM10.8136 19.2169L10.8324 18.8511L11.1231 18.9683L11.1747 18.9871C11.9906 19.2028 12.4408 19.9015 12.2907 20.7362L12.272 21.102L11.9812 20.9848L11.9297 20.966C11.1137 20.7503 10.6635 20.0469 10.8136 19.2169ZM11.9672 16.2204H11.9953C12.8347 16.1594 13.4865 16.6893 13.6084 17.524L13.7069 17.8804L13.3646 17.857H13.3365C12.5018 17.9179 11.8453 17.388 11.7233 16.5533L11.6249 16.197L11.9672 16.2204ZM11.1653 12.9472C11.1653 12.8253 11.1747 12.7081 11.1747 12.5862C11.17 12.1735 11.1278 11.7655 11.0668 11.3669L11.5967 11.7702C11.9672 12.1313 12.4033 12.347 12.8581 12.422C12.5533 12.4455 12.2438 12.5252 11.9437 12.6753L11.1653 12.9472ZM10.5744 9.58499L11.6108 9.88042C11.6764 9.90856 11.7421 9.932 11.803 9.95076C11.7515 9.98828 11.6999 10.0164 11.6483 10.0586L10.8886 10.5557C10.8089 10.2227 10.7011 9.89918 10.5744 9.58499ZM14.2884 14.007L14.5182 14.2978L14.2227 14.4009L14.1712 14.4244C13.4209 14.8042 12.619 14.5791 12.1782 13.8617L11.9484 13.5709L12.2438 13.4678L12.2954 13.4443C13.0457 13.0598 13.8476 13.2849 14.2884 14.007ZM14.5463 11.0152L14.2837 11.1887L14.2415 11.2216C13.5991 11.7749 12.7691 11.7421 12.1688 11.1512L11.8781 10.9261L12.1407 10.7526L12.1829 10.7198C12.8206 10.1665 13.6553 10.1993 14.2556 10.7902L14.5463 11.0152ZM13.7304 7.99531L14.0821 8.09848L13.8992 8.35639L13.871 8.40328C13.4771 9.14889 12.6893 9.42556 11.9156 9.09261L11.5639 8.98945L11.7468 8.73154L11.7749 8.68464C12.1735 7.93904 12.9566 7.66237 13.7304 7.99531ZM10.3775 6.41501L10.3962 6.36342C10.6307 5.55217 11.3435 5.12075 12.1735 5.29426L12.5393 5.32239L12.4127 5.60844L12.3939 5.66002C12.1594 6.47128 11.442 6.89801 10.6166 6.72919L10.2509 6.70105L10.3775 6.41501ZM10.476 7.56389C10.6448 7.59672 10.8136 7.61547 10.9777 7.61547C11.2263 7.61547 11.4607 7.57796 11.6858 7.50762C11.4326 7.70457 11.2122 7.9578 11.0434 8.26729L10.3962 9.17702C10.1196 8.5721 9.77257 8 9.3646 7.48417L10.476 7.56389ZM9.39273 9.05041L8.45487 9.11137C8.09379 9.09261 7.75616 9.15357 7.44666 9.27081C7.53576 8.95193 7.56858 8.60492 7.517 8.23916L7.47948 6.78077C8.26729 7.39977 8.91442 8.1735 9.39273 9.05041ZM1.66002 4.55334L1.42087 4.27198L1.71161 4.15944L1.76319 4.13599C2.49941 3.72802 3.31067 3.92497 3.77491 4.62837L4.01407 4.90973L3.72333 5.02227L3.67175 5.04572C2.93552 5.45369 2.12427 5.25205 1.66002 4.55334ZM4.05627 5.79601L5.16764 5.35991C5.20047 5.49121 5.29426 5.60844 5.43025 5.65533C6.17585 5.91325 6.8558 6.29308 7.46073 6.76671L6.09613 7.28722C5.8898 7.3388 5.70692 7.41852 5.53341 7.50762L6.21805 6.18992L4.75029 5.98828C4.40328 5.89918 4.07034 5.88511 3.75147 5.93669C3.85463 5.89449 3.9578 5.85229 4.05627 5.79601ZM2.91208 8.14537L2.54631 8.0891L2.69168 7.81243L2.71512 7.76084C3.00117 6.96835 3.74209 6.58382 4.55803 6.80891L4.9238 6.86518L4.77843 7.14185L4.75498 7.19343C4.46424 7.98593 3.72333 8.37046 2.91208 8.14537ZM5.52872 10.0633L5.18171 10.1899L5.17233 9.87573L5.16764 9.81946C5.03634 8.98476 5.50059 8.29543 6.32122 8.09848L6.66823 7.97186L6.67761 8.28605L6.6823 8.34232C6.8136 9.17702 6.34936 9.86635 5.52872 10.0633ZM7.06682 11.5967L6.7245 11.6202L6.80891 11.32L6.81829 11.2638C6.93552 10.4666 7.52638 9.95545 8.3095 9.95545C8.34701 9.95545 8.38453 9.95545 8.42673 9.96014H8.45487L8.79719 9.93669L8.71278 10.2368L8.7034 10.2931C8.58148 11.1278 7.94373 11.653 7.09496 11.6014L7.06682 11.5967ZM9.53341 10.4431L9.73036 9.74443C10.0539 10.5135 10.2509 11.3482 10.3072 12.2157L9.46776 12.0234C9.22861 11.939 8.98945 11.8968 8.75498 11.8828C9.16295 11.5311 9.44431 11.0387 9.53341 10.4431ZM7.09027 13.9226L7.25909 13.66L7.28722 13.6131C7.64361 12.8488 8.41735 12.5346 9.20516 12.83L9.56624 12.9144L9.39742 13.177L9.36929 13.2239C9.0129 13.9883 8.23916 14.3072 7.45135 14.007L7.09027 13.9226ZM8.84408 16.4174L8.80657 16.4596C8.29074 17.1254 7.46542 17.2614 6.76202 16.8019L6.43376 16.6377L6.65885 16.4174L6.69637 16.3751C7.21219 15.7093 8.03283 15.5733 8.74091 16.0328L9.06917 16.197L8.84408 16.4174ZM9.17702 15.3107C8.87222 15.1137 8.54396 15.0012 8.2204 14.9496C9.02227 14.8839 9.73505 14.4103 10.1196 13.6038L10.3118 13.3036C10.2743 14.129 10.1524 14.9215 9.94607 15.6811L9.17702 15.3107Z" fill="black"/>
</svg>

<svg width="17" height="24" fill="none" xmlns="http://www.w3.org/2000/svg"><path d="M11.47 14.321c.46.732 1.186 1.13 1.965 1.13a2.46 2.46 0 001.093-.262l1.397-.493-.933-1.153a2.338 2.338 0 00-1.613-1.093 2.39 2.39 0 001.388-.567l1.238-.811-1.182-.896a2.46 2.46 0 00-.891-.553c.267-.202.497-.47.675-.793l.858-1.21-1.425-.403a2.338 2.338 0 00-1.637-.09 2.4 2.4 0 00.793-1.19l.595-1.356-1.477-.107c-1.242-.24-2.354.426-2.72 1.636l-.478 1.083a8.257 8.257 0 00-.961-.937l1.144-.61c1.182-.455 1.763-1.613 1.43-2.832l-.215-1.468-1.309.694c-1.182.455-1.763 1.613-1.43 2.837l.178 1.21a8 8 0 00-1.266-.797l.558-1.018c.74-1.027.596-2.317-.356-3.156L5.909 0l-.713 1.299c-.741 1.027-.596 2.316.356 3.156l.47.525c-.104-.042-.203-.084-.31-.122a.42.42 0 00-.479.16l-.769-.882c-.713-1.046-1.97-1.355-3.085-.755L0 3.925l.97 1.116c.47.69 1.173 1.06 1.923 1.06.127 0 .254-.014.375-.038-.595.23-1.083.708-1.34 1.384l-.685 1.317 1.467.202c.22.056.441.084.657.084.38 0 .74-.093 1.06-.262-.117.347-.16.731-.103 1.135l.037 1.482 1.383-.53c.113-.029.22-.07.324-.113a2.62 2.62 0 00-.084.352l-.399 1.425 1.477-.098c.019 0 .038-.005.056 0a2.5 2.5 0 00-.59.783L5.73 14.47l1.445.333c.168.061.337.099.506.122a2.33 2.33 0 00-1.641.9l-1.055 1.041 1.336.643c.418.267.868.399 1.304.399.684 0 1.346-.315 1.829-.92l.056-.056c-1.318 3.184-4.155 5.52-7.892 6.232a.421.421 0 00.075.835c.028 0 .051-.005.08-.01 3.803-.726 6.738-3.01 8.253-6.147l-.056 1.243c-.212 1.247.487 2.34 1.711 2.677l1.374.558.07-1.482c.211-1.247-.487-2.34-1.711-2.677l-1.28-.525c.23-.507.417-1.032.576-1.576l.179.628c.197 1.248 1.205 2.068 2.47 1.998l1.478.098-.403-1.425c-.197-1.252-1.215-2.068-2.471-1.998l-1.06-.07c.098-.464.173-.938.215-1.421l.352.45zM9.53 2.81l.328-.169.047.31.01.051c.229.811-.146 1.557-.934 1.852l-.328.17-.047-.31-.01-.052c-.234-.811.141-1.557.934-1.852zM5.89 1.774l.184-.324.21.234.038.038c.638.553.732 1.379.23 2.059l-.183.323-.206-.234-.038-.038c-.637-.548-.731-1.378-.234-2.058zm4.925 17.444l.018-.366.291.117.052.02c.816.215 1.266.913 1.116 1.748l-.019.366-.29-.117-.052-.019c-.816-.216-1.266-.92-1.116-1.75zm1.153-2.997h.028c.84-.06 1.492.47 1.613 1.304l.099.356-.342-.023h-.029c-.834.06-1.49-.469-1.613-1.304l-.098-.356.342.023zm-.802-3.273c0-.122.01-.239.01-.36a8.723 8.723 0 00-.108-1.22l.53.403c.37.361.806.577 1.261.652a2.456 2.456 0 00-.914.253l-.779.272zm-.59-3.362l1.036.295c.065.029.131.052.192.07-.052.038-.103.066-.155.109l-.76.497a6.88 6.88 0 00-.314-.971zm3.713 4.422l.23.29-.295.104-.052.023c-.75.38-1.552.155-1.993-.562l-.23-.291.296-.103.051-.024c.75-.384 1.553-.16 1.993.563zm.258-2.992l-.262.174-.043.033c-.642.553-1.472.52-2.072-.07l-.29-.226.262-.173.042-.033c.638-.554 1.472-.52 2.073.07l.29.225zm-.816-3.02l.352.103-.183.258-.028.047c-.394.746-1.182 1.023-1.955.69l-.352-.104.183-.257.028-.047c.399-.746 1.182-1.023 1.955-.69zm-3.353-1.58l.02-.052c.234-.81.947-1.242 1.777-1.069l.365.028-.126.286-.02.052c-.234.811-.951 1.238-1.776 1.07L10.25 6.7l.127-.286zm.099 1.149c.169.033.338.051.502.051.248 0 .483-.037.708-.107a2.43 2.43 0 00-.643.76l-.647.909a8.292 8.292 0 00-1.031-1.693l1.111.08zM9.393 9.05l-.938.061a2.465 2.465 0 00-1.008.16c.089-.32.122-.666.07-1.032l-.038-1.458a7.366 7.366 0 011.914 2.27zM1.66 4.553l-.24-.281.292-.113.051-.023c.736-.408 1.548-.211 2.012.492l.24.282-.292.112-.051.024c-.736.408-1.548.206-2.012-.493zm2.396 1.243l1.112-.436a.416.416 0 00.262.295 7.004 7.004 0 012.03 1.112l-1.364.52c-.206.052-.39.132-.563.22l.685-1.317-1.468-.202a2.423 2.423 0 00-.999-.051c.104-.043.207-.085.305-.141zm-1.144 2.35l-.366-.057.146-.277.023-.051c.286-.793 1.027-1.177 1.843-.952l.366.056-.146.277-.023.051c-.29.793-1.032 1.177-1.843.952zm2.617 1.917l-.347.127-.01-.314-.004-.057C5.036 8.985 5.5 8.295 6.32 8.1l.347-.127.01.314.004.056c.132.835-.333 1.524-1.153 1.721zm1.538 1.534l-.343.023.085-.3.01-.056c.117-.797.707-1.309 1.49-1.309.038 0 .076 0 .118.005h.028l.342-.023-.084.3-.01.056c-.122.835-.76 1.36-1.608 1.308l-.028-.004zm2.466-1.154l.197-.699c.324.77.52 1.604.577 2.472l-.84-.193a2.593 2.593 0 00-.712-.14 2.32 2.32 0 00.778-1.44zm-2.443 3.48l.17-.263.027-.047c.357-.764 1.13-1.078 1.918-.783l.361.084-.169.263-.028.047c-.356.764-1.13 1.083-1.918.783l-.36-.084zm1.754 2.494l-.037.043c-.516.665-1.342.801-2.045.342l-.328-.164.225-.22.037-.043c.516-.666 1.337-.802 2.045-.342l.328.164-.225.22zm.333-1.106a2.468 2.468 0 00-.957-.361c.802-.066 1.515-.54 1.9-1.346l.192-.3a10.99 10.99 0 01-.366 2.377l-.769-.37z" fill="#000"/></svg>
